X: 11332
T: GRAND MARCH IN "ALFRED THE GREAT."
C: Cimarosa.
Q: "Maestoso."
%R: march
B: W. Hamilton "Universal Tune-Book" Vol. 1 Glasgow 1844 p.133 #2
S: http://imslp.org/wiki/Hamilton's_Universal_Tune-Book_(Various)
Z: 2016 John Chambers <jc:trillian.mit.edu>
M: C
L: 1/16
K: Bb
% - - - - - - - - - - - - - - - - - - - - - - - - -
B2c2 |\
d4 d2d2 d2(ed) c2B2 | c4 F3F F4 B2c2 |\
d4 d2d2 d2(ed) c2B2 | c4 f3f f4 c3c |\
c6 (dc) =B2c2d2c2 | c2B2 B4 B2(cB) A2B2 |\
c4 f4 f4 f4 | d4 b4 b4 d3f |
e4 e3f d4 d3e | c4 f3f f4 f3f |\
f4 e3e e2(fg) f2e2 | (e4 d4) z4 d3d |\
d4 c3c c2(de) d2c2 | (c4 B4) z4 f3f |\
f4 e3e e2(fg) f2e2 | (e4 d4) z4 d3d |
d4 c3c c2(de) d2c2 | B2BB B2B2 d2BB B2B2 |\
f2BB B2B2 b2b2 c'bag | f2BB B2B2 d2BB B2B2 |\
f2BB B2B2 c2c2 (fedc) | (B2cB/A/) (B2cB/A/) B2d2c2B2 |
(f2gf/=e/) (f2gf/e/) f2_e2d2c2 | (B2cB/A/) (B2cB/A/) B2d2c2B2 |\
(f2gf/=e/) f2gf/e/ f2_e2d2c2 | B4 f4 f3fg3a |\
b4 f4 f3fg3a | b4 F3B d4 B3d |
f3df3d B3fd3B | g4 g3g g4 g3g |\
f4 f3f a4 a3a | b4 F3B d4 B3d |\
f3df3d B3fd3B | g4 g3g g4 g3g |\
f4 f3f a4 a3a |
b2F2B2F2 B2F2B2c2 |\
d2B2d2B2 d2B2d2e2 | f2d2f2d2 f2d2f2a2 |\
b2a2b2a2 b2a2b2a2 | b4 z4 z8 |\
f2ff f2ff f2f2f2f2 | b6 B2 B4 B4 |\
B12 |]
% - - - - - - - - - - - - - - - - - - - - - - - - -

%%sep 1 1 500
%%sep 1 1 500

